assets/customers/light/dell/dell_top.svg

<svg xmlns="http://www.w3.org/2000/svg" width="232" height="30" viewBox="0 0 232 30" fill="none">
  <g clip-path="url(#clip0_10953_13478)">
    <path d="M230.681 19.2932C230.681 16.5137 229.135 15.2796 226.047 14.6614C222.96 14.0455 221.108 13.7341 221.108 11.575C221.108 10.0318 222.342 9.10457 224.506 9.10457C227.285 9.10457 228.21 10.3387 228.21 11.8841L228.519 12.1932H229.754L230.063 11.8841C230.063 8.79775 227.592 7.56139 224.504 7.56139C221.106 7.56139 219.256 9.41366 219.256 11.5773C219.256 14.0477 221.108 15.2818 224.194 15.9C227.283 16.5182 228.826 16.8273 228.826 19.2978C228.826 20.8409 227.901 22.0773 224.813 22.0773C222.033 22.0773 220.799 20.5318 220.799 18.6796L220.49 18.3705H219.256L218.947 18.6796C218.947 21.4591 221.108 23.6205 224.813 23.6205C228.826 23.6159 230.681 21.7637 230.681 19.2932ZM217.404 16.2068L217.71 15.8977V14.9727C217.71 10.65 215.24 7.56139 210.917 7.56139C206.594 7.56139 204.124 10.65 204.124 14.9727V15.5887C204.124 19.9114 206.285 23.6159 211.226 23.6159C215.549 23.6159 217.092 20.8364 217.401 18.9841L217.092 18.675H215.858L215.549 18.9841C214.931 20.8364 213.697 22.0728 211.226 22.0728C207.21 22.0728 205.976 18.3682 205.976 16.5159L206.285 16.2068H217.404ZM215.551 14.6614H206.288L205.979 14.3523C205.979 12.1909 207.213 9.10457 210.919 9.10457C214.624 9.10457 215.86 12.1909 215.86 14.3523L215.551 14.6614ZM201.965 22.9978V8.17502L201.656 7.86593H200.422L200.113 8.17502V22.9978L200.422 23.3068H201.656L201.965 22.9978ZM201.965 5.08866V3.23639L201.656 2.92729H200.422L200.113 3.23639V5.08866L200.422 5.39775H201.656L201.965 5.08866ZM190.233 22.0728C187.144 22.0728 185.292 19.9114 185.292 15.5887C185.292 11.2659 187.144 9.10457 190.233 9.10457C193.319 9.10457 195.172 11.2659 195.172 15.5887C195.172 19.9091 193.319 22.0728 190.233 22.0728ZM195.172 21.1455C195.172 25.1591 194.244 28.2478 190.54 28.2478C187.76 28.2478 186.835 27.0137 186.526 25.4682L186.217 25.1591H184.983L184.674 25.4682C184.983 27.9387 186.835 29.7909 190.54 29.7909C194.556 29.7909 197.024 27.3205 197.024 21.1455V8.17502L196.715 7.86593H195.788L195.479 8.17502L195.169 10.0296H194.86C194.244 8.79548 192.699 7.55911 189.919 7.55911C185.597 7.55911 183.435 10.9568 183.435 15.5887C183.435 20.2182 185.597 23.6159 189.919 23.6159C192.699 23.6159 194.242 22.3818 194.86 21.1455H195.172ZM175.104 9.10457C178.19 9.10457 180.351 11.575 180.351 15.5887C180.351 19.6023 178.19 22.0728 175.104 22.0728C172.015 22.0728 169.854 19.6023 169.854 15.5887C169.854 11.575 172.015 9.10457 175.104 9.10457ZM175.104 23.6159C179.117 23.6159 182.204 20.8364 182.204 15.5887C182.204 10.3409 179.117 7.55911 175.104 7.55911C171.088 7.55911 168.001 10.3387 168.001 15.5887C168.001 20.8364 171.09 23.6159 175.104 23.6159ZM165.84 22.9978V2.0023L165.531 1.6932H164.297L163.988 2.0023V23L164.297 23.3091H165.531L165.84 22.9978ZM154.726 9.10457C157.813 9.10457 159.974 11.575 159.974 15.5887C159.974 19.6023 157.813 22.0728 154.726 22.0728C151.638 22.0728 149.476 19.6023 149.476 15.5887C149.476 11.575 151.638 9.10457 154.726 9.10457ZM154.726 23.6159C158.74 23.6159 161.829 20.8364 161.829 15.5887C161.829 10.3409 158.74 7.55911 154.726 7.55911C150.713 7.55911 147.624 10.3387 147.624 15.5887C147.624 20.8364 150.713 23.6159 154.726 23.6159ZM145.772 22.9978V13.7341C145.772 9.72048 143.61 7.55911 140.215 7.55911C138.054 7.55911 136.199 8.48639 135.274 10.0296H134.965L134.658 8.17502L134.349 7.86593H133.422L133.113 8.17502V22.9978L133.422 23.3068H134.658L134.965 22.9978V14.6614C134.965 11.2637 136.51 9.10457 139.906 9.10457C142.376 9.10457 143.919 10.6477 143.919 13.7341V22.9978L144.229 23.3068H145.463L145.772 22.9978ZM130.024 22.9978V13.7341C130.024 9.72048 127.863 7.55911 124.467 7.55911C122.306 7.55911 120.454 8.48639 119.526 10.0296H119.217V2.0023L118.908 1.6932H117.674L117.365 2.0023V23L117.674 23.3091H118.908L119.217 23V14.6614C119.217 11.2637 120.763 9.10457 124.158 9.10457C126.629 9.10457 128.172 10.6477 128.172 13.7341V22.9978L128.481 23.3068H129.717L130.024 22.9978ZM103.472 15.5887C103.472 11.2659 105.633 9.10457 108.719 9.10457C111.806 9.10457 113.042 10.9568 113.349 12.8091L113.658 13.1182H114.894L115.204 12.8091C114.894 9.72275 112.424 7.56139 108.719 7.56139C104.706 7.56139 101.619 10.0318 101.619 15.5909C101.619 21.1478 104.706 23.6182 108.719 23.6182C112.424 23.6182 114.894 21.4568 115.204 18.3705L114.894 18.0614H113.658L113.349 18.3705C113.04 20.2227 111.806 22.075 108.719 22.075C105.631 22.0728 103.472 19.9091 103.472 15.5887ZM100.074 16.2068L100.383 15.8977V14.9727C100.383 10.65 97.9127 7.56139 93.5877 7.56139C89.2672 7.56139 86.7945 10.65 86.7945 14.9727V15.5887C86.7945 19.9114 88.9558 23.6159 93.8968 23.6159C98.2195 23.6159 99.7627 20.8364 100.072 18.9841L99.7627 18.675H98.5286L98.2195 18.9841C97.6036 20.8364 96.3672 22.0728 93.8968 22.0728C89.8831 22.0728 88.649 18.3682 88.649 16.5159L88.9581 16.2068H100.074ZM98.2217 14.6614H88.9581L88.649 14.3523C88.649 12.1909 89.8831 9.10457 93.5877 9.10457C97.2945 9.10457 98.5286 12.1909 98.5286 14.3523L98.2217 14.6614ZM89.9013 2.92729V2.0023L89.5922 1.6932H73.5354L73.2263 2.0023V2.92957L73.5354 3.23866H80.3286L80.6377 3.54775V23L80.9468 23.3091H82.1808L82.4899 23V3.54548L82.799 3.23639H89.5922L89.9013 2.92729ZM73.2263 19.0114V23.3068H59.2831V1.6932H64.1922V19.0114H73.2263ZM8.76039 23.3068C13.7899 23.3068 18.0172 19.8705 19.2218 15.2205L31.449 24.7728L43.6695 15.225V23.3068H57.6127V19.0114H48.5786V1.6932H43.6695V9.77502L31.949 18.9318L29.3286 16.8841L34.9377 12.5L41.0468 7.72729L37.5604 5.00002L25.8377 14.1591L23.2172 12.1114L34.9377 2.95457L31.449 0.227295L19.2218 9.77957C18.0172 5.12957 13.7899 1.6932 8.76039 1.6932H-0.000976562V23.3068H8.76039ZM4.90811 19.0114V5.98866H8.76039C12.0172 5.98866 14.6581 8.90457 14.6581 12.5C14.6581 16.0955 12.0172 19.0114 8.76039 19.0114H4.90811Z" fill="url(#paint0_linear_10953_13478)"/>
  </g>
  <defs>
    <linearGradient id="paint0_linear_10953_13478" x1="130.878" y1="0.227296" x2="232.594" y2="18.5564" gradientUnits="userSpaceOnUse">
      <stop stop-color="#1C2024"/>
      <stop offset="1" stop-color="#60646C"/>
    </linearGradient>
    <clipPath id="clip0_10953_13478">
      <rect width="231.136" height="30" fill="white"/>
    </clipPath>
  </defs>
</svg>

<svg xmlns="http://www.w3.org/2000/svg" width="232" height="30" fill="none" viewBox="0 0 232 30"><g clip-path="url(#a)"><path fill="url(#b)" d="M230.681 19.293c0-2.78-1.546-4.013-4.634-4.632-3.087-.615-4.939-.927-4.939-3.086 0-1.543 1.234-2.47 3.398-2.47 2.779 0 3.704 1.234 3.704 2.78l.309.308h1.235l.309-.309c0-3.086-2.471-4.323-5.559-4.323-3.398 0-5.248 1.853-5.248 4.016 0 2.47 1.852 3.705 4.938 4.323 3.089.618 4.632.927 4.632 3.398 0 1.543-.925 2.78-4.013 2.78-2.78 0-4.014-1.546-4.014-3.398l-.309-.31h-1.234l-.309.31c0 2.78 2.161 4.94 5.866 4.94 4.013-.004 5.868-1.856 5.868-4.327m-13.277-3.086.306-.31v-.924c0-4.323-2.47-7.412-6.793-7.412s-6.793 3.089-6.793 7.412v.616c0 4.322 2.161 8.027 7.102 8.027 4.323 0 5.866-2.78 6.175-4.632l-.309-.309h-1.234l-.309.31c-.618 1.851-1.852 3.088-4.323 3.088-4.016 0-5.25-3.705-5.25-5.557l.309-.31zm-1.853-1.546h-9.263l-.309-.309c0-2.161 1.234-5.247 4.94-5.247 3.705 0 4.941 3.086 4.941 5.247zm-13.586 8.337V8.175l-.309-.31h-1.234l-.309.31v14.823l.309.309h1.234zm0-17.91V3.237l-.309-.309h-1.234l-.309.31V5.09l.309.309h1.234zm-11.732 16.985c-3.089 0-4.941-2.162-4.941-6.484 0-4.323 1.852-6.484 4.941-6.484 3.086 0 4.939 2.16 4.939 6.484 0 4.32-1.853 6.484-4.939 6.484m4.939-.928c0 4.014-.928 7.103-4.632 7.103-2.78 0-3.705-1.234-4.014-2.78l-.309-.309h-1.234l-.309.31c.309 2.47 2.161 4.322 5.866 4.322 4.016 0 6.484-2.47 6.484-8.646V8.175l-.309-.31h-.927l-.309.31-.31 1.855h-.309c-.616-1.235-2.161-2.47-4.941-2.47-4.322 0-6.484 3.397-6.484 8.029 0 4.63 2.162 8.027 6.484 8.027 2.78 0 4.323-1.234 4.941-2.47zm-20.068-12.04c3.086 0 5.247 2.47 5.247 6.484s-2.161 6.484-5.247 6.484c-3.089 0-5.25-2.47-5.25-6.484s2.161-6.484 5.25-6.484m0 14.51c4.013 0 7.1-2.779 7.1-8.026 0-5.248-3.087-8.03-7.1-8.03-4.016 0-7.103 2.78-7.103 8.03 0 5.247 3.089 8.027 7.103 8.027m-9.264-.617V2.002l-.309-.309h-1.234l-.309.31V23l.309.31h1.234zM154.726 9.105c3.087 0 5.248 2.47 5.248 6.484s-2.161 6.484-5.248 6.484-5.25-2.47-5.25-6.484 2.162-6.484 5.25-6.484m0 14.51c4.014 0 7.103-2.779 7.103-8.026 0-5.248-3.089-8.03-7.103-8.03s-7.102 2.78-7.102 8.03c0 5.247 3.089 8.027 7.102 8.027m-8.954-.617v-9.264c0-4.014-2.162-6.175-5.557-6.175-2.161 0-4.016.927-4.941 2.47h-.309l-.307-1.854-.309-.31h-.927l-.309.31v14.823l.309.309h1.236l.307-.31v-8.336c0-3.397 1.545-5.556 4.941-5.556 2.47 0 4.013 1.543 4.013 4.63v9.263l.31.309h1.234zm-15.748 0v-9.264c0-4.014-2.161-6.175-5.557-6.175-2.161 0-4.013.927-4.941 2.47h-.309V2.003l-.309-.309h-1.234l-.309.31V23l.309.31h1.234l.309-.31v-8.339c0-3.397 1.546-5.556 4.941-5.556 2.471 0 4.014 1.543 4.014 4.63v9.263l.309.309h1.236zm-26.552-7.41c0-4.322 2.161-6.483 5.247-6.483 3.087 0 4.323 1.852 4.63 3.704l.309.31h1.236l.31-.31c-.31-3.086-2.78-5.248-6.485-5.248-4.013 0-7.1 2.47-7.1 8.03 0 5.557 3.087 8.027 7.1 8.027 3.705 0 6.175-2.161 6.485-5.247l-.31-.31h-1.236l-.309.31c-.309 1.852-1.543 3.704-4.63 3.704-3.088-.002-5.247-2.166-5.247-6.486m-3.398.619.309-.31v-.924c0-4.323-2.47-7.412-6.795-7.412-4.32 0-6.793 3.089-6.793 7.412v.616c0 4.322 2.16 8.027 7.102 8.027 4.322 0 5.866-2.78 6.175-4.632l-.31-.309H98.53l-.31.31c-.615 1.851-1.852 3.088-4.322 3.088-4.014 0-5.248-3.705-5.248-5.557l.31-.31zm-1.852-1.546h-9.264l-.309-.309c0-2.161 1.234-5.247 4.939-5.247 3.707 0 4.94 3.086 4.94 5.247zm-8.32-11.734v-.925l-.31-.309H73.535l-.309.31v.927l.31.309h6.793l.309.309V23l.309.31h1.234l.309-.31V3.545l.309-.309h6.793zM73.225 19.011v4.296H59.283V1.693h4.91v17.318zM8.76 23.307c5.03 0 9.257-3.436 10.462-8.086l12.227 9.552 12.22-9.548v8.082h13.944V19.01h-9.034V1.693h-4.91v8.082l-11.72 9.157-2.62-2.048 5.609-4.384 6.109-4.773L37.56 5l-11.722 9.16-2.62-2.049 11.72-9.156L31.449.227 19.222 9.78C18.017 5.13 13.79 1.693 8.76 1.693H0v21.614zM4.908 19.01V5.99H8.76c3.257 0 5.898 2.916 5.898 6.511s-2.64 6.511-5.898 6.511z"/></g><defs><linearGradient id="b" x1="130.878" x2="232.594" y1=".227" y2="18.556" gradientUnits="userSpaceOnUse"><stop stop-color="#1C2024"/><stop offset="1" stop-color="#60646C"/></linearGradient><clipPath id="a"><path fill="#fff" d="M0 0h231.136v30H0z"/></clipPath></defs></svg>
